images/otherdeed.svg

<svg height="250" viewBox="0 0 250 250" width="250" xmlns="http://www.w3.org/2000/svg"><path d="m0 125v125h250v-250h-250zm106.25-78.1875c-4.5 11.0625-9.875 30.375-11.5 41.375-.9375 6.375-1.375 16.8125-.6875 16.8125.1875 0 1-.4375 1.8125-.9375 2.875-1.875 12.25-4.625 19.25-5.6875 12-1.75 25.875-.125 36.1875 4.375l5.125 2.1875-.375-8.875c-.5625-12.5625-4.125-27.6875-11-46.375-1.375-3.75-2.375-6.9375-2.25-7.0625.6875-.6875 8.1875 5.1875 13.4375 10.5 6.1875 6.25 11.125 12.75 16.1875 21.1875l3 4.9375 5.4375-4.625c3.75-3.25 5.375-4.375 5.375-3.625 0 .625-.5625 7.8125-1.3125 16.0625-.6875 8.1875-1.125 15.0625-.9375 15.25s2.5-1.1875 5.1875-3.0625c7-4.875 6.625-4.75 6.125-2.3125-.8125 4.1875-5.3125 16.75-8.4375 23.625-2.5 5.5-3 7.25-2.5 8.1875.3125.625 3.9375 6.4375 8 12.9375l7.875 12.5625c.4375.6875-.6875.8125-6.4375.4375-4.625-.3125-6.9375-.25-6.9375.1875 0 .3125 1.6875 5.8125 3.6875 12.125 5.0625 15.6875 4.75 14.4375 3.375 14-2.125-.625-15.875-3-16.0625-2.8125-.125.125-1.25 2.3125-2.5625 4.75-4.25 8.1875-13.1875 15.375-23.875 19.1875-10.9375 3.875-29.5625 5.0625-42.375 2.625-16.625-3.0625-29.1875-11.25-34.6875-22.5-1.125-2.25-2.375-4.125-2.8125-4.125s-4.1875.6875-8.4375 1.5625c-9.125 1.875-8.375 1.8125-7.8125.4375.5-1.25 5.5-16.75 7.25-22.25l1.125-3.6875-6.8125.4375c-3.8125.25-6.875.25-6.875 0 0-.1875 3.6875-6.3125 8.1875-13.5s8.0625-13.375 7.875-13.8125c-.125-.4375-2.1875-3.5625-4.5-7-4.5625-6.8125-9.625-16.8125-11.1875-22.0625-.5-1.75-.8125-3.25-.6875-3.25.375 0 10.1875 4.5625 14.1875 6.625l2.9375 1.5-.25-4.8125c-.1875-2.6875-.4375-10.25-.5625-16.75l-.3125-11.875 4.4375 4.6875c4.1875 4.4375 4.4375 4.625 5.3125 3.4375.4375-.6875 3.0625-4.625 5.75-8.75 5.125-7.8125 11.0625-14.8125 16.9375-20 3.25-2.875 8.5625-6.5625 9.4375-6.5625.25 0-.375 1.9375-1.3125 4.3125zm-12 85.375c-8.875 3.375-14.25 12.375-12.375 20.6875 2.8125 12.4375 17.0625 19.25 28.875 13.8125 7.0625-3.1875 10.5625-8.1875 11-15.625.3125-5.4375-1-9.0625-4.8125-13.125-4.375-4.6875-7.9375-6.25-14.75-6.5-3.8125-.125-6.375.125-7.9375.75zm47.1875 4.75c-1.8125.6875-4.5625 2.5-6.125 4.0625-9.0625 8.75-6.75 22.25 4.625 27.875 4.3125 2.125 12.25 2 16.6875-.25 4.5625-2.375 6.625-4.3125 8.6875-8.125 1.625-2.875 1.875-3.9375 1.875-8-.0625-5.5-1.3125-8.5-5.25-12.0625-4-3.625-6.0625-4.375-11.9375-4.625-4.25-.125-6 .0625-8.5625 1.125zm0 0"/></svg>

<svg xmlns="http://www.w3.org/2000/svg" xmlns:xlink="http://www.w3.org/1999/xlink" width="250px" height="250px" viewBox="0 0 250 250" version="1.1">
<g id="surface1">
<path style=" stroke:none;fill-rule:nonzero;fill:rgb(0%,0%,0%);fill-opacity:1;" d="M 0 125 L 0 250 L 250 250 L 250 0 L 0 0 Z M 106.25 46.8125 C 101.75 57.875 96.375 77.1875 94.75 88.1875 C 93.8125 94.5625 93.375 105 94.0625 105 C 94.25 105 95.0625 104.5625 95.875 104.0625 C 98.75 102.1875 108.125 99.4375 115.125 98.375 C 127.125 96.625 141 98.25 151.3125 102.75 L 156.4375 104.9375 L 156.0625 96.0625 C 155.5 83.5 151.9375 68.375 145.0625 49.6875 C 143.6875 45.9375 142.6875 42.75 142.8125 42.625 C 143.5 41.9375 151 47.8125 156.25 53.125 C 162.4375 59.375 167.375 65.875 172.4375 74.3125 L 175.4375 79.25 L 180.875 74.625 C 184.625 71.375 186.25 70.25 186.25 71 C 186.25 71.625 185.6875 78.8125 184.9375 87.0625 C 184.25 95.25 183.8125 102.125 184 102.3125 C 184.1875 102.5 186.5 101.125 189.1875 99.25 C 196.1875 94.375 195.8125 94.5 195.3125 96.9375 C 194.5 101.125 190 113.6875 186.875 120.5625 C 184.375 126.0625 183.875 127.8125 184.375 128.75 C 184.6875 129.375 188.3125 135.1875 192.375 141.6875 L 200.25 154.25 C 200.6875 154.9375 199.5625 155.0625 193.8125 154.6875 C 189.1875 154.375 186.875 154.4375 186.875 154.875 C 186.875 155.1875 188.5625 160.6875 190.5625 167 C 195.625 182.6875 195.3125 181.4375 193.9375 181 C 191.8125 180.375 178.0625 178 177.875 178.1875 C 177.75 178.3125 176.625 180.5 175.3125 182.9375 C 171.0625 191.125 162.125 198.3125 151.4375 202.125 C 140.5 206 121.875 207.1875 109.0625 204.75 C 92.4375 201.6875 79.875 193.5 74.375 182.25 C 73.25 180 72 178.125 71.5625 178.125 C 71.125 178.125 67.375 178.8125 63.125 179.6875 C 54 181.5625 54.75 181.5 55.3125 180.125 C 55.8125 178.875 60.8125 163.375 62.5625 157.875 L 63.6875 154.1875 L 56.875 154.625 C 53.0625 154.875 50 154.875 50 154.625 C 50 154.4375 53.6875 148.3125 58.1875 141.125 C 62.6875 133.9375 66.25 127.75 66.0625 127.3125 C 65.9375 126.875 63.875 123.75 61.5625 120.3125 C 57 113.5 51.9375 103.5 50.375 98.25 C 49.875 96.5 49.5625 95 49.6875 95 C 50.0625 95 59.875 99.5625 63.875 101.625 L 66.8125 103.125 L 66.5625 98.3125 C 66.375 95.625 66.125 88.0625 66 81.5625 L 65.6875 69.6875 L 70.125 74.375 C 74.3125 78.8125 74.5625 79 75.4375 77.8125 C 75.875 77.125 78.5 73.1875 81.1875 69.0625 C 86.3125 61.25 92.25 54.25 98.125 49.0625 C 101.375 46.1875 106.6875 42.5 107.5625 42.5 C 107.8125 42.5 107.1875 44.4375 106.25 46.8125 Z M 94.25 132.1875 C 85.375 135.5625 80 144.5625 81.875 152.875 C 84.6875 165.3125 98.9375 172.125 110.75 166.6875 C 117.8125 163.5 121.3125 158.5 121.75 151.0625 C 122.0625 145.625 120.75 142 116.9375 137.9375 C 112.5625 133.25 109 131.6875 102.1875 131.4375 C 98.375 131.3125 95.8125 131.5625 94.25 132.1875 Z M 141.4375 136.9375 C 139.625 137.625 136.875 139.4375 135.3125 141 C 126.25 149.75 128.5625 163.25 139.9375 168.875 C 144.25 171 152.1875 170.875 156.625 168.625 C 161.1875 166.25 163.25 164.3125 165.3125 160.5 C 166.9375 157.625 167.1875 156.5625 167.1875 152.5 C 167.125 147 165.875 144 161.9375 140.4375 C 157.9375 136.8125 155.875 136.0625 150 135.8125 C 145.75 135.6875 144 135.875 141.4375 136.9375 Z M 141.4375 136.9375 "/>
</g>
</svg>
